assets/img/forms/select.svg

<svg width="16" height="15" viewBox="0 0 16 15" fill="none" xmlns="http://www.w3.org/2000/svg">
<path d="M12.6662 6.35645C12.6665 6.44982 12.6446 6.54208 12.6019 6.62644C12.5592 6.71081 12.4969 6.78513 12.4195 6.84395L8.41954 9.8627C8.30025 9.95463 8.15062 10.0049 7.9962 10.0049C7.84179 10.0049 7.69216 9.95463 7.57287 9.8627L3.57287 6.7377C3.43672 6.63162 3.35111 6.47917 3.33485 6.31391C3.3186 6.14864 3.37304 5.98409 3.4862 5.85645C3.59936 5.72882 3.76197 5.64855 3.93825 5.63332C4.11453 5.61808 4.29006 5.66912 4.4262 5.7752L7.99954 8.56895L11.5729 5.86895C11.6707 5.79253 11.7899 5.74398 11.9163 5.72905C12.0426 5.71413 12.1709 5.73345 12.2859 5.78474C12.4009 5.83602 12.4979 5.91712 12.5653 6.01844C12.6327 6.11976 12.6677 6.23706 12.6662 6.35645Z" fill="#080E0D"/>
</svg>

<svg width="16" height="15" viewBox="0 0 16 15" fill="none" xmlns="http://www.w3.org/2000/svg"><path d="M12.666 6.356a.593.593 0 01-.064.27.633.633 0 01-.183.218l-4 3.019a.694.694 0 01-.423.142.694.694 0 01-.423-.142l-4-3.125a.6.6 0 01-.087-.881.698.698 0 01.94-.081L8 8.568l3.573-2.7a.706.706 0 01.713-.084.655.655 0 01.28.233.596.596 0 01.1.338z" fill="#080E0D"/></svg>
